src/icons/cpu.svg

<?xml version="1.0" encoding="UTF-8"?>
<svg xmlns="http://www.w3.org/2000/svg" xmlns:xlink="http://www.w3.org/1999/xlink" width="32" height="32" viewBox="0 0 32 32" version="1.1">
<g id="surface1">
<path style=" stroke:none;fill-rule:nonzero;fill:rgb(0%,0%,0%);fill-opacity:1;" d="M 8.320312 0.640625 C 8.148438 0.640625 7.988281 0.707031 7.867188 0.828125 C 7.746094 0.949219 7.679688 1.109375 7.679688 1.28125 L 7.679688 3.199219 L 8.960938 3.199219 L 8.960938 1.28125 C 8.960938 0.925781 8.671875 0.640625 8.320312 0.640625 M 13.441406 0.640625 C 13.269531 0.640625 13.109375 0.707031 12.988281 0.828125 C 12.867188 0.949219 12.800781 1.113281 12.800781 1.28125 L 12.800781 3.199219 L 14.078125 3.199219 L 14.078125 1.28125 C 14.078125 1.113281 14.011719 0.949219 13.890625 0.828125 C 13.773438 0.707031 13.609375 0.640625 13.441406 0.640625 M 18.558594 0.640625 C 18.390625 0.640625 18.226562 0.710938 18.109375 0.828125 C 17.988281 0.949219 17.921875 1.113281 17.921875 1.28125 L 17.921875 3.199219 L 19.199219 3.199219 L 19.199219 1.28125 C 19.199219 1.109375 19.132812 0.949219 19.011719 0.828125 C 18.890625 0.707031 18.730469 0.640625 18.558594 0.640625 M 23.679688 0.640625 C 23.324219 0.640625 23.039062 0.929688 23.039062 1.28125 L 23.039062 3.199219 L 24.320312 3.199219 L 24.320312 1.28125 C 24.320312 1.109375 24.253906 0.949219 24.132812 0.828125 C 24.011719 0.707031 23.851562 0.640625 23.679688 0.640625 M 5.761719 3.839844 C 5.253906 3.839844 4.761719 4.042969 4.402344 4.402344 C 4.042969 4.761719 3.839844 5.25 3.839844 5.761719 L 3.839844 26.238281 C 3.839844 26.746094 4.042969 27.238281 4.402344 27.597656 C 4.761719 27.957031 5.253906 28.160156 5.761719 28.160156 L 26.238281 28.160156 C 26.746094 28.160156 27.238281 27.957031 27.597656 27.597656 C 27.957031 27.238281 28.160156 26.746094 28.160156 26.238281 L 28.160156 5.761719 C 28.160156 5.253906 27.957031 4.761719 27.597656 4.402344 C 27.238281 4.042969 26.746094 3.839844 26.238281 3.839844 Z M 7.679688 6.398438 C 8.386719 6.398438 8.960938 6.972656 8.960938 7.679688 C 8.960938 8.390625 8.386719 8.960938 7.679688 8.960938 C 6.96875 8.960938 6.394531 8.386719 6.398438 7.679688 C 6.398438 6.972656 6.972656 6.398438 7.679688 6.398438 M 1.28125 7.679688 C 0.9375 7.695312 0.664062 7.976562 0.664062 8.320312 C 0.664062 8.664062 0.9375 8.949219 1.28125 8.960938 L 3.199219 8.960938 L 3.199219 7.679688 Z M 28.800781 7.679688 L 28.800781 8.960938 L 30.71875 8.960938 C 31.058594 8.941406 31.324219 8.660156 31.324219 8.320312 C 31.324219 7.980469 31.058594 7.699219 30.71875 7.679688 Z M 1.28125 12.800781 C 0.925781 12.800781 0.640625 13.085938 0.640625 13.4375 C 0.640625 13.792969 0.925781 14.078125 1.28125 14.078125 L 3.199219 14.078125 L 3.199219 12.800781 Z M 28.800781 12.800781 L 28.800781 14.078125 L 30.71875 14.078125 C 31.070312 14.078125 31.355469 13.792969 31.355469 13.441406 C 31.355469 13.085938 31.070312 12.800781 30.71875 12.800781 Z M 1.28125 17.921875 C 0.925781 17.921875 0.640625 18.207031 0.640625 18.5625 C 0.640625 18.914062 0.925781 19.199219 1.28125 19.199219 L 3.199219 19.199219 L 3.199219 17.921875 Z M 28.800781 17.921875 L 28.800781 19.199219 L 30.71875 19.199219 C 30.953125 19.210938 31.171875 19.089844 31.292969 18.886719 C 31.414062 18.6875 31.414062 18.4375 31.292969 18.234375 C 31.171875 18.035156 30.953125 17.914062 30.71875 17.921875 Z M 1.28125 23.039062 C 0.9375 23.050781 0.664062 23.335938 0.664062 23.679688 C 0.664062 24.023438 0.9375 24.304688 1.28125 24.320312 L 3.199219 24.320312 L 3.199219 23.039062 Z M 24.320312 23.039062 C 25.027344 23.039062 25.601562 23.613281 25.601562 24.320312 C 25.601562 25.03125 25.027344 25.605469 24.316406 25.601562 C 23.609375 25.601562 23.035156 25.027344 23.035156 24.320312 C 23.035156 23.613281 23.609375 23.039062 24.320312 23.039062 M 28.800781 23.039062 L 28.800781 24.320312 L 30.71875 24.320312 C 31.0625 24.304688 31.332031 24.023438 31.332031 23.679688 C 31.332031 23.335938 31.0625 23.050781 30.71875 23.039062 Z M 7.679688 28.800781 L 7.679688 30.71875 C 7.679688 31.074219 7.964844 31.359375 8.320312 31.359375 C 8.675781 31.359375 8.960938 31.074219 8.960938 30.71875 L 8.960938 28.800781 Z M 12.800781 28.800781 L 12.800781 30.71875 C 12.800781 31.070312 13.085938 31.359375 13.4375 31.359375 C 13.792969 31.359375 14.078125 31.070312 14.078125 30.71875 L 14.078125 28.800781 Z M 17.921875 28.800781 L 17.921875 30.71875 C 17.921875 31.070312 18.207031 31.359375 18.558594 31.359375 C 18.914062 31.359375 19.199219 31.070312 19.199219 30.71875 L 19.199219 28.800781 Z M 23.039062 28.800781 L 23.039062 30.71875 C 23.039062 31.074219 23.324219 31.359375 23.679688 31.359375 C 23.847656 31.359375 24.011719 31.292969 24.132812 31.171875 C 24.253906 31.050781 24.320312 30.890625 24.320312 30.71875 L 24.320312 28.800781 Z M 23.039062 28.800781 "/>
</g>
</svg>

<svg role="img" viewBox="0 0 32 32" xmlns="http://www.w3.org/2000/svg"><path d="M8.32.64a.639.639 0 0 0-.64.641V3.2h1.28V1.281a.64.64 0 0 0-.64-.64m5.121 0a.639.639 0 0 0-.64.641V3.2h1.277V1.281a.638.638 0 0 0-.637-.64m5.118 0a.638.638 0 0 0-.637.641V3.2h1.277V1.281a.639.639 0 0 0-.64-.64m5.12 0a.641.641 0 0 0-.64.641V3.2h1.281V1.281a.639.639 0 0 0-.64-.64M5.763 3.84A1.92 1.92 0 0 0 3.84 5.762v20.476a1.92 1.92 0 0 0 1.922 1.922h20.476a1.92 1.92 0 0 0 1.922-1.922V5.762a1.92 1.92 0 0 0-1.922-1.922ZM7.68 6.398a1.282 1.282 0 1 1-.002 2.564 1.282 1.282 0 0 1 .002-2.564M1.28 7.68a.641.641 0 0 0 0 1.281H3.2V7.68Zm27.52 0v1.28h1.918a.641.641 0 0 0 0-1.28ZM1.28 12.8a.639.639 0 1 0 0 1.278H3.2v-1.277Zm27.52 0v1.278h1.918a.638.638 0 1 0 0-1.277ZM1.28 17.923a.638.638 0 1 0 0 1.277H3.2v-1.277Zm27.52 0V19.2h1.918a.639.639 0 1 0 0-1.277ZM1.28 23.039a.641.641 0 0 0 0 1.281H3.2v-1.28Zm23.04 0a1.282 1.282 0 1 1-.002 2.564 1.282 1.282 0 0 1 .001-2.564m4.48 0v1.281h1.918a.641.641 0 0 0 0-1.281ZM7.68 28.801v1.918c0 .355.285.64.64.64.356 0 .64-.285.64-.64V28.8Zm5.12 0v1.918a.639.639 0 1 0 1.278 0V28.8Zm5.122 0v1.918a.638.638 0 1 0 1.277 0V28.8Zm5.117 0v1.918c0 .355.285.64.64.64a.638.638 0 0 0 .641-.64V28.8Zm0 0" style="stroke:none;fill-rule:nonzero;fill:rgb(0%,0%,0%);fill-opacity:1"/></svg>
